X:1
T: The Races at Carrick
C:
R:Jig
Q:180
K:D
M:6/8
L:1/16
|:g2|f2d2B2 B2c2d2|e2c2A2 A4G2|F2A2A2 d2e2f2|g2f2g2 b2a2g2|
f2d2B2 B2c2d2|e2c2A2 A2z2G2|F2A2A2 d2e2f2|1g2e2c2 d4g2:|2g2e2c2 d4e2|
f6 f2e2d2|f2a2a2 a4f2|g2f2g2 B2c2d2|e2c2A2 A4d2|
f6 f2e2d2|f2a2a2 a2g2f2|g2f2g2 b2a2g2|1f2d2d2|d4e2:|2f2d2d2 d4||


